X: 4
T: The Moving Cloud
R: reel
M: 4/4
L: 1/8
K: Gmaj
|:DGAG EGBG | DGBG AGEG | cEG cBd ga | aged cEGE |D3G~E3G | DGBG AGEG | cEGc BDGB | ~A3B ~G3z |DG~G2 EG~G2| DG~G2 AGEG |cEG cBd ga | aged cEGE |D3G~E3G | DGBG AGEG | cEGc BDGB | ~A3B ~G3z||:d2 bd adgd | ~d2 bd adgd | e2 c'e beae | ~e2 c'e baged2 bd adgd | ~d2 bd adgd|1 c'bac' bage | dBAB ~G3z:|2cBAc BDGB|~A3B~G3z||:(3B^cd ^cdedBA | Bz ^cdedBd | ce~e2 fe~e2 | feed edBA(3B^cd ^cdedBA | Bz ^cdedBA | BAAG GFFE | EDEF ~G3z||(3B^cd ^cdedBA | Bz ^cdedBd | ce~e2 fe~e2 | g2fd edBA(3B^cd ^cdedBA | Bz ^cdedBA| BDAD GDFD|EDEF ~G3z|


Tune 1091	Setting 1091

